src/components/00-materials/images-raw/Baby Sitting.svg

<svg width="96" height="96" viewBox="0 0 96 96" fill="none" xmlns="http://www.w3.org/2000/svg">
<path d="M41.5399 25.31H32.1099C29.3715 25.4542 26.7735 26.5671 24.7799 28.45V35.81C24.7799 42.81 28.9699 48.41 36.2999 48.41C43.6299 48.41 47.8199 42.77 47.8199 35.81V22.16C47.8199 22.16 44.6799 25.31 41.5399 25.31V25.31Z" stroke="#00008F" stroke-width="2" stroke-linecap="round" stroke-linejoin="round"/>
<path d="M18.4999 23.49C18.4999 19.5118 20.0803 15.6965 22.8933 12.8834C25.7064 10.0704 29.5217 8.49002 33.4999 8.49002H35.7899C38.4329 8.45117 41.0392 9.1114 43.345 10.4039C45.6507 11.6963 47.5739 13.5751 48.9199 15.85C49.6199 15.8044 50.3215 15.9087 50.9779 16.1559C51.6343 16.4032 52.2304 16.7876 52.7264 17.2836C53.2224 17.7795 53.6068 18.3757 53.854 19.0321C54.1012 19.6885 54.2055 20.3901 54.1599 21.09V39.93C54.1456 41.6908 54.6842 43.4117 55.6999 44.85M28.9699 45.88V51.64M43.6299 45.88V51.64L48.2499 52.35M51.3499 76.9L48.9999 77.47C40.63 79.0799 32.0299 79.0799 23.6599 77.47L12.4699 75.32C11.5133 75.1305 10.6518 74.6155 10.0319 73.8626C9.41209 73.1097 9.07216 72.1653 9.06995 71.19V66.28C9.0795 63.0706 10.2339 59.9698 12.3254 57.5354C14.417 55.1011 17.3085 53.4929 20.4799 53L28.9999 51.64" stroke="#00008F" stroke-width="2" stroke-linecap="round" stroke-linejoin="round"/>
<path d="M24.6799 52.3L27.7899 58.82C28.5564 60.4246 29.7614 61.7795 31.2656 62.7279C32.7698 63.6764 34.5117 64.1797 36.2899 64.1797C38.0682 64.1797 39.8101 63.6764 41.3143 62.7279C42.8184 61.7795 44.0234 60.4246 44.7899 58.82L47.8899 52.3M20.5899 71.35V76.76M52.0099 71.35L51.9999 76.05M22.6899 52.49L20.9999 52.22C19.5661 51.9757 18.2106 51.3952 17.0443 50.5261C15.878 49.657 14.9341 48.5241 14.2899 47.22C15.5781 46.4824 16.6457 45.4139 17.3824 44.1252C18.1191 42.8365 18.498 41.3743 18.4799 39.89V23.17M80.3599 52C79.3864 48.8808 77.4428 46.1537 74.8121 44.2155C72.1814 42.2773 69.0009 41.2291 65.7333 41.2235C62.4657 41.2179 59.2815 42.2552 56.6443 44.1845C54.007 46.1137 52.0541 48.8342 51.0699 51.95M51.3799 60.61C52.5111 63.4956 54.4873 65.9724 57.0496 67.7162C59.6119 69.4599 62.641 70.3894 65.7404 70.3829C68.8398 70.3765 71.865 69.4343 74.42 67.6798C76.975 65.9254 78.9408 63.4403 80.0599 60.55" stroke="#00008F" stroke-width="2" stroke-linecap="round" stroke-linejoin="round"/>
<path d="M80.9099 51.89C80.7253 51.8946 80.5413 51.9147 80.3599 51.95C80.7216 53.1947 80.9067 54.4839 80.9099 55.78C80.906 57.4073 80.6183 59.0215 80.0599 60.55C80.3379 60.6189 80.6235 60.6525 80.9099 60.65C81.9994 60.5458 83.0109 60.0393 83.7469 59.2294C84.483 58.4195 84.8909 57.3644 84.8909 56.27C84.8909 55.1756 84.483 54.1205 83.7469 53.3106C83.0109 52.5007 81.9994 51.9942 80.9099 51.89Z" stroke="#00008F" stroke-width="2" stroke-linecap="round" stroke-linejoin="round"/>
<path d="M80.06 60.55C80.6184 59.0215 80.906 57.4073 80.91 55.78C80.9021 54.5007 80.717 53.2286 80.36 52M51.38 60.61C50.3378 57.8165 50.229 54.7605 51.07 51.9M72 46C70 46 68.42 43.54 68.42 41.39M70.18 49C66.72 49 63.92 45.24 63.92 41.47M49 85L58.14 86.8C63.3981 87.7799 68.7919 87.7799 74.05 86.8L83.14 85M76.18 83.06V86.34" stroke="#00008F" stroke-width="2" stroke-linecap="round" stroke-linejoin="round"/>
<path d="M49 85C49 75.56 56.65 70.44 66.1 70.44C75.55 70.44 83.14 75.52 83.14 85M70.48 70.79C70.5085 71.3901 70.4149 71.9898 70.2049 72.5527C69.9949 73.1156 69.6728 73.63 69.2582 74.0648C68.8435 74.4996 68.345 74.8458 67.7927 75.0822C67.2403 75.3187 66.6458 75.4407 66.045 75.4407C65.4442 75.4407 64.8496 75.3187 64.2973 75.0822C63.745 74.8458 63.2465 74.4996 62.8318 74.0648C62.4172 73.63 62.0951 73.1156 61.8851 72.5527C61.6751 71.9898 61.5815 71.3901 61.61 70.79M51.36 60.54C51.0746 60.6067 50.783 60.6436 50.49 60.65C49.4006 60.5458 48.3891 60.0393 47.653 59.2294C46.9169 58.4195 46.509 57.3644 46.509 56.27C46.509 55.1756 46.9169 54.1205 47.653 53.3106C48.3891 52.5007 49.4006 51.9942 50.49 51.89C50.6628 51.9121 50.8334 51.9489 51 52" stroke="#00008F" stroke-width="2" stroke-linecap="round" stroke-linejoin="round"/>
</svg>

<svg width="96" height="96" viewBox="0 0 96 96" fill="none" xmlns="http://www.w3.org/2000/svg"><path d="M41.54 25.31h-9.43a11.56 11.56 0 00-7.33 3.14v7.36c0 7 4.19 12.6 11.52 12.6 7.33 0 11.52-5.64 11.52-12.6V22.16s-3.14 3.15-6.28 3.15v0z" stroke="#00008F" stroke-width="2" stroke-linecap="round" stroke-linejoin="round"/><path d="M18.5 23.49a15 15 0 0115-15h2.29a15 15 0 0113.13 7.36 4.93 4.93 0 015.24 5.24v18.84a8.41 8.41 0 001.54 4.92m-26.73 1.03v5.76m14.66-5.76v5.76l4.62.71m3.1 24.55l-2.35.57a67.08 67.08 0 01-25.34 0l-11.19-2.15a4.22 4.22 0 01-3.4-4.13v-4.91A13.48 13.48 0 0120.48 53L29 51.64" stroke="#00008F" stroke-width="2" stroke-linecap="round" stroke-linejoin="round"/><path d="M24.68 52.3l3.11 6.52a9.42 9.42 0 0017 0l3.1-6.52m-27.3 19.05v5.41m31.42-5.41l-.01 4.7M22.69 52.49L21 52.22a9.209 9.209 0 01-6.71-5 8.33 8.33 0 004.19-7.33V23.17M80.36 52a15.35 15.35 0 00-29.29-.05m.31 8.66a15.39 15.39 0 0028.68-.06" stroke="#00008F" stroke-width="2" stroke-linecap="round" stroke-linejoin="round"/><path d="M80.91 51.89a3.311 3.311 0 00-.55.06c.362 1.245.547 2.534.55 3.83a13.999 13.999 0 01-.85 4.77c.278.069.564.103.85.1a4.4 4.4 0 000-8.76z" stroke="#00008F" stroke-width="2" stroke-linecap="round" stroke-linejoin="round"/><path d="M80.06 60.55c.558-1.528.846-3.143.85-4.77a13.853 13.853 0 00-.55-3.78m-28.98 8.61a13.79 13.79 0 01-.31-8.71M72 46c-2 0-3.58-2.46-3.58-4.61M70.18 49c-3.46 0-6.26-3.76-6.26-7.53M49 85l9.14 1.8a43.42 43.42 0 0015.91 0l9.09-1.8m-6.96-1.94v3.28" stroke="#00008F" stroke-width="2" stroke-linecap="round" stroke-linejoin="round"/><path d="M49 85c0-9.44 7.65-14.56 17.1-14.56 9.45 0 17.04 5.08 17.04 14.56M70.48 70.79a4.44 4.44 0 11-8.87 0M51.36 60.54a4.229 4.229 0 01-.87.11 4.4 4.4 0 010-8.76c.173.022.343.059.51.11" stroke="#00008F" stroke-width="2" stroke-linecap="round" stroke-linejoin="round"/></svg>
